X:251
T: WAR EINST EIN JUNG ZIMMERGESELL
N: E0129A
O: Europa, Mitteleuropa, Deutschland, Taunus, Wuerges
R: erzaehlendes Volks - Lied, Schalk -, Schelmen - Lied, Liebe; Handwerk
M: 6/8
L: 1/16
K: F
C2 | F4F2A2G2F2 | G3GG2B2A2
G2 | A3Bc2c2B2A2 | G6z4
d2 | d4B2B2c2d2 | c4A2A4
c2 | c2d2c2B2A2G2 | c6-c4
d2 | d4B2B2c2d2 | c4A2A4
c2 | c2d2c2B2A2G2 | F6z4

@@@ Tune index: 3901
